X:4895
T:Over the Water
O:england
M:6/8
C:
S:Bacon (Jour 1934)
N:transposed from A to G
A:Bledington
R:Jig
%P:A/2.(AB)$^4$.(A)
P:A.(AB)4.(A)
%:
%:
L:1/8
K:G
I:speed 300
P:A
|:GBd dBd|efe d2 G|A2 A BAG|E2 F G3:|\
P:B
|:efg fed|efe d2-d|efg  fed|\
M:3/8
L:1/8
e2 f|\
M:6/8
gag f2 d|efg d2 G|A2 A BAG|E2 F G3:|


